X:5838
T:Scotch Mary
T:Irish Molly
O:england
R:Reel
M:C|
K:ADor
AB|:cE {G}(3EDE cdef|cEEF G2AB|1 cE {G}(3EDE cded|(3cBA BG A2 AB:|2\
~c3(3efg ed|cABG A2 ^cd|:\
eaag (efg ed|^cdef (3gag fg|1ea {b}ag (3efg ed|(3cBA BG A2 ^cd:|2\
(3agf (3gfe (3fga ed|cABG A2 AB||


